X:1
T:Title
%%score { 1 | ( 2 3 ) }
L:1/8
M:4/4
K:Ab
V:1 treble nm="Grand Piano"
V:2 bass 
V:3 bass 
V:1
 z4 z2[Q:1/4=100] [CA][DB] | [Ec]3 [Fd] [Ec]2 E2 | F2 [FA]4 [DF]2 | [CE]2 [EA]2 [EB]2 [Ec]2 | %4
[M:3/4] [EB]6 |[M:1/4] [CA][DB] |[M:4/4] [Ec]3 [Fd] [Ec]2 E2 | F2 [FA]4 F2 | E2 A2 c2 B2 | %9
[M:3/4] [CA]6 |[M:1/4] cd |[M:4/4] e3 f e2 d2 | c2 e4 c2 | [GB]2 [GB]2 [Ge]2 [Bd]2 |[M:3/4] c6 | %15
[M:1/4] cd |[M:4/4] e3 f e2 c2 | [FB]2 [FA]4 F2 | E2 A2 c2 B2 |[M:3/4] [CA]6 |] %20
V:2
 z4 z2 [A,,A,]2 | [A,,A,]3 [A,,A,] [A,,A,]2 [C,A,]2 | [D,A,D]2 [D,D]4 [D,A,]2 | %3
 [A,,A,]2 [C,A,]2 [B,,G,]2 [A,,A,]2 |[M:3/4] [E,G,]6 |[M:1/4] [A,,A,]2 | %6
[M:4/4] [A,,A,]3 [A,,A,] [A,,A,]2 [C,A,]2 | [D,A,D]2 [D,D]4 [D,A,D]2 | %8
 [E,A,C]2 [F,A,C]2 [E,A,E]2 [E,G,D]2 |[M:3/4] [A,,A,]6 |[M:1/4][K:treble] [A,A]2 | %11
[M:4/4] [A,CA]3 [A,DA] [A,CA]2 [A,FA]2 | [A,EA]2 [A,CA]4 [A,EA]2 | [E,E]2 [E,E]2 [E,B,]2 [E,E]2 | %14
[M:3/4][K:treble] [A,EA]6 |[M:1/4] [A,A]2 |[M:4/4] [A,CA]3 [A,DA] [A,CA]2[K:bass] [A,E]2 | %17
 [D,D]2 [D,D]4 [D,A,D]2 | [E,A,C]2 [E,CE]2 [E,A,E]2 [E,G,D]2 |[M:3/4] [A,,A,]6 |] %20
V:3
 x8 | x8 | x8 | x8 |[M:3/4] x6 |[M:1/4] x2 |[M:4/4] x8 | x8 | x8 |[M:3/4] x6 | %10
[M:1/4][K:treble] z B, |[M:4/4] x8 | x8 | x8 |[M:3/4][K:treble] x6 |[M:1/4] z B, | %16
[M:4/4] x6[K:bass] x2 | x8 | x8 |[M:3/4] x6 |] %20

